X: 1247
T: The Five Leaved Clover
M:C|
L:1/8
R:Reel
B:O'Neill's 1247
N:Collected by F. O'Neill
Z:Transcribed by Trish O'Neil
K:A
(ed)|cAAB AGEF|GEAE GEDF|EAAB cBcd|eage dfed|
cAAB AGEF|GEAF GFED|EAAB cBcd|eaged2||
(cd)|eaab agef|geae gede|c2ced2df|eaged2(cd)|
eaag agef|geae gede|cBcd efgb|afge dfed||


